svg/filled/node-hardware.svg

<svg width="24" height="24" viewBox="0 0 24 24" fill="none" xmlns="http://www.w3.org/2000/svg">
<path fill-rule="evenodd" clip-rule="evenodd" d="M20.9999 9.88379C21.0033 9.63406 20.8823 9.3827 20.636 9.23825L13.1419 4.84334C12.4534 4.43956 11.6007 4.43847 10.9111 4.84047L3.36938 9.23727C3.12196 9.38152 3.00042 9.63347 3.00386 9.88379H2.99995V14.3148H3.00408C3.01115 14.5585 3.13674 14.7991 3.38001 14.9355L10.9431 19.1778C11.6163 19.5554 12.4378 19.5543 13.11 19.175L20.6253 14.9346C20.8675 14.7979 20.9926 14.5579 20.9996 14.3148L20.9999 9.88379ZM4.76444 10.4474C4.58407 10.3456 4.35534 10.4093 4.25357 10.5897C4.15179 10.7701 4.21551 10.9988 4.39589 11.1006L10.7548 14.6885C11.5471 15.1355 12.516 15.1331 13.306 14.6823L19.5841 11.0997C19.7639 10.997 19.8265 10.768 19.7239 10.5881C19.6212 10.4083 19.3922 10.3456 19.2123 10.4483L12.9343 14.0309C12.3735 14.3509 11.6857 14.3526 11.1234 14.0353L4.76444 10.4474Z" fill="black"/>
</svg>

<svg xmlns="http://www.w3.org/2000/svg" viewBox="0 0 24 24" fill="currentColor">
  <path fill-rule="evenodd" d="M21 9.884a.73.73 0 00-.364-.646l-7.494-4.395a2.21 2.21 0 00-2.23-.003L3.368 9.237a.73.73 0 00-.365.647H3v4.43h.004a.73.73 0 00.376.621l7.563 4.243a2.21 2.21 0 002.167-.003l7.515-4.24a.73.73 0 00.375-.62V9.884zm-16.236.563a.375.375 0 10-.368.654l6.359 3.587a2.585 2.585 0 002.551-.006l6.278-3.582a.375.375 0 00-.372-.652l-6.278 3.583c-.56.32-1.248.322-1.81.004l-6.36-3.588z" clip-rule="evenodd"/>
</svg>
